X: 9871
T: Dermot Grogan's
R: reel
M: 4/4
K: Adorian
A2EA A2DA|G2DG EGD2|A2EA ABd2|gedB GABG|
A2EA A2DA|GADA GAD2|GEDE GABd|e2dB A2Bd:|:
eaag e2ag|eaae g2fg|eaag a2ab|gedB GABd|
eaag e2ag|eaae g2fg|eaag bgaf|gedB A2Bd:|

